X:3
T:No.13 The Glory Reel
C:reel
M:4/4
L:1/8
K:G
G2 BG dGBG|G2 BG AFDF|G2 BG dGBG|
c2 Bc AFDF:||E6 cA|BGEG AFDF|E6 cA|
Bd^cB AFDF|E6 cA|BGEG AFDF|E6 cA|
Bd^cB AFDf||gagf edef|gafg ecAf|
gagf eaaf|[1gefd ecAf:|[2gefd ecAF||
